resources/icons/dark/view-hierarchical.svg

<?xml version="1.0" encoding="utf-8"?>
<!-- Generator: Adobe Illustrator 22.1.0, SVG Export Plug-In . SVG Version: 6.00 Build 0)  -->
<svg version="1.1" id="图层_1" xmlns="http://www.w3.org/2000/svg" xmlns:xlink="http://www.w3.org/1999/xlink" x="0px" y="0px"
	 viewBox="0 0 16 16" style="enable-background:new 0 0 16 16;" xml:space="preserve">
<style type="text/css">
	.st0{fill:#2D2D30;}
	.st1{fill:#C5C5C5;}
</style>
<g id="_x7B__PAGE_GRID__x7D_">
</g>
<g id="outline">
	<path class="st0" d="M2,6H1V1h5v1h10v3H6v1h4v1h6v3h-6v2h6v3h-6v1H5v-1H2V6z"/>
</g>
<g id="icon_x5F_bg">
	<path class="st1" d="M9,10V7H6v1H4V5h1V2H2v3h1v9h3v1h3v-3H6v1H4V9h2v1H9z M7,8h1v1H7V8z M3,3h1v1H3V3z M7,13h1v1H7V13z"/>
	<rect x="6" y="3" class="st1" width="9" height="1"/>
	<rect x="10" y="8" class="st1" width="5" height="1"/>
	<rect x="10" y="13" class="st1" width="5" height="1"/>
</g>
<g id="icon_x5F_fg">
	<path class="st0" d="M7,13v1h1v-1H7z M7,8v1h1V8H7z M3,3v1h1V3H3z"/>
</g>
<g id="not_x5F_bg">
</g>
<g id="not_x5F_fg">
</g>
</svg>

<svg width="16" height="16" viewBox="0 0 16 16" fill="none" xmlns="http://www.w3.org/2000/svg">
<path d="M9 10V7H6V8H4V5H5V2H2V5H3V14H6V15H9V12H6V13H4V9H6V10H9ZM7 8H8V9H7V8ZM3 3H4V4H3V3ZM7 13H8V14H7V13Z" fill="#C5C5C5"/>
<path d="M15 3H6V4H15V3Z" fill="#C5C5C5"/>
<path d="M15 8H10V9H15V8Z" fill="#C5C5C5"/>
<path d="M15 13H10V14H15V13Z" fill="#C5C5C5"/>
</svg>
